src/assets/buttons.svg

<svg width="124" height="53" viewBox="0 0 124 53" fill="none" xmlns="http://www.w3.org/2000/svg">
<circle cx="25" cy="25" r="24.5" stroke="black"/>
<circle cx="30.5" cy="24.5" r="3" stroke="black"/>
<circle cx="19.5" cy="24.5" r="3" stroke="black"/>
<path d="M115.349 8C120.066 12.5472 123 18.931 123 26C123 39.8071 111.807 51 98 51C93.4464 51 89.1772 49.7826 85.5 47.6554" stroke="black"/>
<path d="M78.5 41.6459C75.0589 37.3627 73 31.9218 73 26C73 12.1929 84.1929 1 98 1C101.947 1 105.681 1.91474 109 3.54379" stroke="black"/>
<path d="M111 4.64162C111.923 5.20463 112.807 5.82579 113.646 6.50001" stroke="black"/>
<path d="M108 6.39884C105 4.86511 101.601 4 98 4C85.8497 4 76 13.8497 76 26C76 31.3023 77.8758 36.1665 81 39.9652" stroke="black"/>
<path d="M85.5 44.1063C89.0499 46.5617 93.357 48 98 48C110.15 48 120 38.1503 120 26C120 19.6467 117.307 13.9224 113 9.9064" stroke="black"/>
<circle cx="103.5" cy="20.5" r="3" stroke="black"/>
<circle cx="92.5" cy="20.5" r="3" stroke="black"/>
<circle cx="103.5" cy="30.5" r="3" stroke="black"/>
<circle cx="92.5" cy="30.5" r="3" stroke="black"/>
<path d="M83.5449 41.373C83.6118 41.579 83.8039 41.7187 84.0205 41.7188H89.0215L84.9756 44.6582C84.8005 44.7855 84.727 45.0109 84.7939 45.2168L86.3389 49.9717L82.2939 47.0332C82.1406 46.9218 81.9396 46.9077 81.7744 46.9912L81.7061 47.0332L77.6602 49.9717L79.2061 45.2168C79.273 45.0109 79.1995 44.7855 79.0244 44.6582L74.9785 41.7188H79.9795C80.1961 41.7187 80.3882 41.579 80.4551 41.373L82 36.6172L83.5449 41.373Z" stroke="black" stroke-linejoin="round"/>
<path d="M111.545 6.37305C111.612 6.57902 111.804 6.7187 112.021 6.71875H117.021L112.976 9.6582C112.8 9.78555 112.727 10.0109 112.794 10.2168L114.339 14.9717L110.294 12.0332C110.141 11.9218 109.94 11.9077 109.774 11.9912L109.706 12.0332L105.66 14.9717L107.206 10.2168C107.273 10.0109 107.2 9.78555 107.024 9.6582L102.979 6.71875H107.979C108.196 6.7187 108.388 6.57902 108.455 6.37305L110 1.61719L111.545 6.37305Z" stroke="black" stroke-linejoin="round"/>
<path d="M70.3536 28.3536C70.5488 28.1583 70.5488 27.8417 70.3536 27.6464L67.1716 24.4645C66.9763 24.2692 66.6597 24.2692 66.4645 24.4645C66.2692 24.6597 66.2692 24.9763 66.4645 25.1716L69.2929 28L66.4645 30.8284C66.2692 31.0237 66.2692 31.3403 66.4645 31.5355C66.6597 31.7308 66.9763 31.7308 67.1716 31.5355L70.3536 28.3536ZM53 28V28.5H70V28V27.5H53V28Z" fill="black"/>
</svg>

<svg xmlns="http://www.w3.org/2000/svg" width="124" height="53" fill="none"><circle cx="25" cy="25" r="24.5" stroke="#000"/><circle cx="30.5" cy="24.5" r="3" stroke="#000"/><circle cx="19.5" cy="24.5" r="3" stroke="#000"/><path stroke="#000" d="M115.349 8A24.93 24.93 0 0 1 123 26c0 13.807-11.193 25-25 25a24.9 24.9 0 0 1-12.5-3.345M78.5 41.646A24.9 24.9 0 0 1 73 26C73 12.193 84.193 1 98 1c3.947 0 7.681.915 11 2.544M111 4.642a25 25 0 0 1 2.646 1.858"/><path stroke="#000" d="M108 6.399A21.9 21.9 0 0 0 98 4c-12.15 0-22 9.85-22 22a21.9 21.9 0 0 0 5 13.965M85.5 44.106A21.9 21.9 0 0 0 98 48c12.15 0 22-9.85 22-22a21.94 21.94 0 0 0-7-16.094"/><circle cx="103.5" cy="20.5" r="3" stroke="#000"/><circle cx="92.5" cy="20.5" r="3" stroke="#000"/><circle cx="103.5" cy="30.5" r="3" stroke="#000"/><circle cx="92.5" cy="30.5" r="3" stroke="#000"/><path stroke="#000" stroke-linejoin="round" d="M83.545 41.373a.5.5 0 0 0 .475.346h5.002l-4.046 2.94a.5.5 0 0 0-.182.558l1.545 4.755-4.045-2.939a.5.5 0 0 0-.52-.042l-.068.042-4.046 2.939 1.546-4.755a.5.5 0 0 0-.182-.559l-4.046-2.94h5.002a.5.5 0 0 0 .475-.345L82 36.617zM111.545 6.373a.5.5 0 0 0 .476.346h5l-4.045 2.94a.5.5 0 0 0-.182.558l1.545 4.755-4.045-2.939a.5.5 0 0 0-.52-.042l-.068.042-4.046 2.939 1.546-4.755a.5.5 0 0 0-.182-.559l-4.045-2.94h5a.5.5 0 0 0 .476-.345L110 1.617z"/><path fill="#000" d="M70.354 28.354a.5.5 0 0 0 0-.708l-3.182-3.181a.5.5 0 1 0-.707.707L69.293 28l-2.829 2.828a.5.5 0 1 0 .708.707zM53 28v.5h17v-1H53z"/></svg>
